src/Assets/Icons/usability.svg

<?xml version="1.0"?>
<svg xmlns="http://www.w3.org/2000/svg" height="512px" viewBox="0 0 496 496" width="512px" class=""><g><path d="m456 40v32h-352v-32c0-17.679688 14.320312-32 32-32h288c17.679688 0 32 14.320312 32 32zm0 0" fill="#838f9b" data-original="#838F9B" class="active-path" style="fill:#838F9B"/><path d="m344 451.199219v36.800781h-208c-17.679688 0-32-14.320312-32-32v-32h227.199219l5.761719 7.199219c4.558593 5.679687 7.039062 12.722656 7.039062 20zm0 0" fill="#838f9b" data-original="#838F9B" class="active-path" style="fill:#838F9B"/><path d="m316.71875 405.921875 14.480469 18.078125h-227.199219v-192h32v160h174.320312l.078126.640625c1.042968 4.800781 3.203124 9.359375 6.320312 13.28125zm0 0" fill="#69d6f4" data-original="#69D6F4" class="" style="fill:#69D6F4"/><path d="m424 232v-128h-288v32h-32v-64h352v176c0-4.398438-1.761719-8.398438-4.71875-11.28125-2.882812-2.957031-6.882812-4.71875-11.28125-4.71875-8.800781 0-16 7.199219-16 16zm0 0" fill="#69d6f4" data-original="#69D6F4" class="" style="fill:#69D6F4"/><path d="m408 216c-8.800781 0-16 7.199219-16 16v-64c0-8.800781-7.199219-16-16-16-4.398438 0-8.398438 1.761719-11.28125 4.71875-2.957031 2.882812-4.71875 6.882812-4.71875 11.28125v107.839844c-4.160156-4.71875-9.761719-8.238282-16.238281-9.917969l-39.761719-9.921875v-14.480469c14.320312-8.320312 24-23.757812 24-41.519531v-14c0-26.238281-20.238281-49.199219-46.558594-50-27.121094-.800781-49.441406 20.960938-49.441406 48v16c0 17.761719 9.679688 33.199219 24 41.519531v14.480469l-39.761719 9.921875c-14.238281 3.597656-24.238281 16.398437-24.238281 31.039063v31.039062h106.878906l11.441406 64h-174.320312v-160h32c8.800781 0 16-7.199219 16-16v-64c0-8.800781-7.199219-16-16-16h-32v-32h288v128c0-4.398438-1.761719-8.398438-4.71875-11.28125-2.882812-2.957031-6.882812-4.71875-11.28125-4.71875zm0 0" fill="#e6e9ed" data-original="#E6E9ED" class=""/><path d="m8 216v-64c0-8.800781 7.199219-16 16-16h144c8.800781 0 16 7.199219 16 16v64c0 8.800781-7.199219 16-16 16h-64v32l-40-32h-40c-8.800781 0-16-7.199219-16-16zm0 0" fill="#ffeaa7" data-original="#FFEAA7" class=""/><path d="m296 310.398438c0 1.042968.078125 2.160156.320312 3.203124l2.558594 14.398438h-106.878906v-31.039062c0-14.640626 10-27.441407 24.238281-31.039063l39.761719-9.921875v-14.480469c-14.320312-8.320312-24-23.757812-24-41.519531v-16c0-27.039062 22.320312-48.800781 49.441406-48 26.320313.800781 46.558594 23.761719 46.558594 50v14c0 17.761719-9.679688 33.199219-24 41.519531v14.480469l39.761719 9.921875c6.476562 1.679687 12.078125 5.199219 16.238281 9.917969v76.160156c-9.441406 0-17.601562-6.398438-19.921875-15.519531l-8.636719-34.878907c-2-8-9.203125-13.601562-17.441406-13.601562-4.960938 0-9.441406 2-12.71875 5.28125-3.28125 3.277344-5.28125 7.757812-5.28125 12.71875zm0 0" fill="#b4dd7f" data-original="#B4DD7F" class=""/><path d="m424 232v16c0-8.800781 7.199219-16 16-16 4.398438 0 8.398438 1.761719 11.28125 4.71875 2.957031 2.882812 4.71875 6.882812 4.71875 11.28125v16c0-4.398438 1.761719-8.398438 4.71875-11.28125 2.882812-2.957031 6.882812-4.71875 11.28125-4.71875 8.800781 0 16 7.199219 16 16v118.320312c0 6.320313-1.839844 12.480469-5.359375 17.757813l-21.28125 31.84375c-3.519531 5.277344-5.359375 11.4375-5.359375 17.757813v38.320312h-112v-36.800781c0-7.277344-2.480469-14.320313-7.039062-20l-5.761719-7.199219-14.480469-18.078125c-3.117188-3.921875-5.277344-8.480469-6.320312-13.28125l-.078126-.640625-11.441406-64-2.558594-14.398438c-.242187-1.042968-.320312-2.160156-.320312-3.203124v-4.398438c0-4.960938 2-9.441406 5.28125-12.71875 3.277344-3.28125 7.757812-5.28125 12.71875-5.28125 8.238281 0 15.441406 5.601562 17.441406 13.601562l8.636719 34.878907c2.320313 9.121093 10.480469 15.519531 19.921875 15.519531v-184c0-4.398438 1.761719-8.398438 4.71875-11.28125 2.882812-2.957031 6.882812-4.71875 11.28125-4.71875 8.800781 0 16 7.199219 16 16v64c0-8.800781 7.199219-16 16-16 4.398438 0 8.398438 1.761719 11.28125 4.71875 2.957031 2.882812 4.71875 6.882812 4.71875 11.28125zm0 0" fill="#f0d0b4" data-original="#F0D0B4" class=""/><path d="m299.902344 336h-115.902344v-39.015625c0-18.390625 12.457031-34.34375 30.296875-38.808594l33.703125-8.421875v-3.84375c-14.910156-10.414062-24-27.597656-24-45.902344v-16c0-15.28125 6.039062-29.550781 17.007812-40.191406 10.960938-10.632812 25.289063-16.152344 40.710938-15.785156 29.929688.898438 54.28125 26.90625 54.28125 57.984375v13.984375c0 18.3125-9.089844 35.503906-24.007812 45.910156v3.832032l33.710937 8.433593c7.960937 1.992188 15 6.296875 20.394531 12.449219l-12.042968 10.542969c-3.230469-3.695313-7.460938-6.273438-12.238282-7.480469l-45.808594-11.449219-.023437-25.316406 4-2.3125c12.34375-7.144531 20.015625-20.410156 20.015625-34.609375v-13.984375c0-22.511719-17.390625-41.351563-38.761719-41.992187-11.039062-.449219-21.261719 3.671874-29.085937 11.265624-7.832032 7.597657-12.152344 17.800782-12.152344 28.710938v16c0 14.191406 7.664062 27.457031 20.007812 34.601562l3.992188 2.308594v25.335938l-45.824219 11.449218c-10.695312 2.679688-18.175781 12.257813-18.175781 23.289063v23.015625h99.902344zm0 0" data-original="#000000" class="" style="fill:#000000"/><path d="m32 160h16v16h-16zm0 0" data-original="#000000" class="" style="fill:#000000"/><path d="m64 160h96v16h-96zm0 0" data-original="#000000" class="" style="fill:#000000"/><path d="m32 192h128v16h-128zm0 0" data-original="#000000" class="" style="fill:#000000"/><path d="m248 32h64v16h-64zm0 0" data-original="#000000" class="" style="fill:#000000"/><path d="m328 32h16v16h-16zm0 0" data-original="#000000" class="" style="fill:#000000"/><path d="m216 32h16v16h-16zm0 0" data-original="#000000" class="" style="fill:#000000"/><path d="m256 448h48v16h-48zm0 0" data-original="#000000" class="" style="fill:#000000"/><path d="m472 240c-2.816406 0-5.488281.574219-8 1.472656v-201.472656c0-22.054688-17.945312-40-40-40h-288c-22.054688 0-40 17.945312-40 40v104h72c4.40625 0 8 3.585938 8 8v64c0 4.414062-3.59375 8-8 8h-72v23.351562l-29.191406-23.351562h-42.808594c-4.40625 0-8-3.585938-8-8v-64c0-4.414062 3.59375-8 8-8h56v-16h-56c-13.230469 0-24 10.769531-24 24v64c0 13.230469 10.769531 24 24 24h37.191406l50.808594 40.648438v-40.648438h16v160h176.335938c1.480468 3.910156 3.519531 7.625 6.136718 10.894531l4.078125 5.105469h-202.550781v-118.832031h-16v158.832031c0 22.054688 17.945312 40 40 40h328v-46.3125c0-4.75 1.390625-9.351562 4.03125-13.3125l21.25-31.871094c4.390625-6.59375 6.71875-14.265625 6.71875-22.183594v-118.320312c0-13.230469-10.769531-24-24-24zm-336-224h288c13.230469 0 24 10.769531 24 24v24h-336v-24c0-13.230469 10.769531-24 24-24zm-24 64h336v145.472656c-2.511719-.898437-5.183594-1.472656-8-1.472656s-5.488281.574219-8 1.472656v-129.472656h-304v32h-16zm32 160h24c13.230469 0 24-10.769531 24-24v-64c0-13.230469-10.769531-24-24-24h-24v-16h272v97.472656c-2.511719-.898437-5.183594-1.472656-8-1.472656s-5.488281.574219-8 1.472656v-41.472656c0-13.230469-10.769531-24-24-24s-24 10.769531-24 24v173.113281c-1.984375-1.648437-3.457031-3.921875-4.121094-6.570312l-8.71875-34.863281c-2.886718-11.589844-13.257812-19.679688-25.191406-19.679688-14.320312 0-25.96875 11.648438-25.96875 25.96875v4.4375c0 1.539062.136719 3.066406.40625 4.570312l12.347656 69.023438h-156.753906zm-8 240c-13.230469 0-24-10.769531-24-24v-24h215.351562l3.382813 4.230469c3.402344 4.242187 5.265625 9.570312 5.265625 14.992187v28.777344zm344-97.6875c0 4.75-1.390625 9.351562-4.03125 13.3125l-21.25 31.871094c-4.390625 6.601562-6.71875 14.273437-6.71875 22.191406v30.3125h-96v-28.777344c0-9.054687-3.113281-17.925781-8.769531-24.992187l-20.261719-25.328125c-2.320312-2.902344-3.953125-6.351563-4.671875-9.695313l-14.136719-79.046875c-.113281-.585937-.160156-1.167968-.160156-1.753906v-4.4375c0-5.496094 4.472656-9.96875 9.96875-9.96875 4.582031 0 8.558594 3.105469 9.671875 7.542969l8.71875 34.863281c3.167969 12.722656 14.535156 21.59375 27.640625 21.59375h8v-192c0-4.414062 3.59375-8 8-8s8 3.585938 8 8v160h16v-96c0-4.414062 3.59375-8 8-8s8 3.585938 8 8v96h16v-80c0-4.414062 3.59375-8 8-8s8 3.585938 8 8v80h16v-64c0-4.414062 3.59375-8 8-8s8 3.585938 8 8zm0 0" data-original="#000000" class="" style="fill:#000000"/><path d="m160 352h16v16h-16zm0 0" data-original="#000000" class="" style="fill:#000000"/><path d="m192 352h88v16h-88zm0 0" data-original="#000000" class="" style="fill:#000000"/></g> </svg>

<?xml version="1.0" encoding="UTF-8" standalone="no"?>
<svg
   xmlns:dc="http://purl.org/dc/elements/1.1/"
   xmlns:cc="http://creativecommons.org/ns#"
   xmlns:rdf="http://www.w3.org/1999/02/22-rdf-syntax-ns#"
   xmlns:svg="http://www.w3.org/2000/svg"
   xmlns="http://www.w3.org/2000/svg"
   xmlns:sodipodi="http://sodipodi.sourceforge.net/DTD/sodipodi-0.dtd"
   xmlns:inkscape="http://www.inkscape.org/namespaces/inkscape"
   height="45"
   viewBox="0 0 43.59375 43.59375"
   width="45"
   class=""
   version="1.1"
   id="svg42"
   sodipodi:docname="usability.svg"
   inkscape:version="0.92.4 (5da689c313, 2019-01-14)">
  <metadata
     id="metadata48">
    <rdf:RDF>
      <cc:Work
         rdf:about="">
        <dc:format>image/svg+xml</dc:format>
        <dc:type
           rdf:resource="http://purl.org/dc/dcmitype/StillImage" />
        <dc:title></dc:title>
      </cc:Work>
    </rdf:RDF>
  </metadata>
  <defs
     id="defs46" />
  <sodipodi:namedview
     pagecolor="#ffffff"
     bordercolor="#666666"
     borderopacity="1"
     objecttolerance="10"
     gridtolerance="10"
     guidetolerance="10"
     inkscape:pageopacity="0"
     inkscape:pageshadow="2"
     inkscape:window-width="1920"
     inkscape:window-height="1017"
     id="namedview44"
     showgrid="false"
     inkscape:zoom="7.375"
     inkscape:cx="41.846181"
     inkscape:cy="12.988275"
     inkscape:window-x="-8"
     inkscape:window-y="-8"
     inkscape:window-maximized="1"
     inkscape:current-layer="svg42" />
  <g
     id="g40"
     transform="matrix(0.08050847,0,0,0.08050847,1.0508475,1.034428)">
    <path
       d="M 456,40 V 72 H 104 V 40 C 104,22.320312 118.32031,8 136,8 h 288 c 17.67969,0 32,14.320312 32,32 z m 0,0"
       data-original="#838F9B"
       class="active-path"
       style="fill:#838f9b"
       id="path2"
       inkscape:connector-curvature="0" />
    <path
       d="M 344,451.19922 V 488 H 136 c -17.67969,0 -32,-14.32031 -32,-32 v -32 h 227.19922 l 5.76172,7.19922 c 4.55859,5.67969 7.03906,12.72265 7.03906,20 z m 0,0"
       data-original="#838F9B"
       class="active-path"
       style="fill:#838f9b"
       id="path4"
       inkscape:connector-curvature="0" />
    <path
       d="M 316.71875,405.92187 331.19922,424 H 104 V 232 h 32 v 160 h 174.32031 l 0.0781,0.64062 c 1.04297,4.80079 3.20312,9.35938 6.32031,13.28125 z m 0,0"
       data-original="#69D6F4"
       class=""
       style="fill:#69d6f4"
       id="path6"
       inkscape:connector-curvature="0" />
    <path
       d="M 424,232 V 104 H 136 v 32 H 104 V 72 h 352 v 176 c 0,-4.39844 -1.76172,-8.39844 -4.71875,-11.28125 C 448.39844,233.76172 444.39844,232 440,232 c -8.80078,0 -16,7.19922 -16,16 z m 0,0"
       data-original="#69D6F4"
       class=""
       style="fill:#69d6f4"
       id="path8"
       inkscape:connector-curvature="0" />
    <path
       d="m 408,216 c -8.80078,0 -16,7.19922 -16,16 v -64 c 0,-8.80078 -7.19922,-16 -16,-16 -4.39844,0 -8.39844,1.76172 -11.28125,4.71875 C 361.76172,159.60156 360,163.60156 360,168 v 107.83984 c -4.16016,-4.71875 -9.76172,-8.23828 -16.23828,-9.91797 L 304,256 V 241.51953 C 318.32031,233.19922 328,217.76172 328,200 V 186 C 328,159.76172 307.76172,136.80078 281.44141,136 254.32031,135.19922 232,156.96094 232,184 v 16 c 0,17.76172 9.67969,33.19922 24,41.51953 V 256 l -39.76172,9.92187 C 202,269.51953 192,282.32031 192,296.96094 V 328 h 106.87891 l 11.4414,64 H 136 V 232 h 32 c 8.80078,0 16,-7.19922 16,-16 v -64 c 0,-8.80078 -7.19922,-16 -16,-16 h -32 v -32 h 288 v 128 c 0,-4.39844 -1.76172,-8.39844 -4.71875,-11.28125 C 416.39844,217.76172 412.39844,216 408,216 Z m 0,0"
       data-original="#E6E9ED"
       class=""
       id="path10"
       inkscape:connector-curvature="0"
       style="fill:#e6e9ed" />
    <path
       d="m 8,216 v -64 c 0,-8.80078 7.199219,-16 16,-16 h 144 c 8.80078,0 16,7.19922 16,16 v 64 c 0,8.80078 -7.19922,16 -16,16 h -64 v 32 L 64,232 H 24 C 15.199219,232 8,224.80078 8,216 Z m 0,0"
       data-original="#FFEAA7"
       class=""
       id="path12"
       inkscape:connector-curvature="0"
       style="fill:#ffeaa7" />
    <path
       d="m 296,310.39844 c 0,1.04297 0.0781,2.16015 0.32031,3.20312 L 298.87891,328 H 192 v -31.03906 c 0,-14.64063 10,-27.44141 24.23828,-31.03907 L 256,256 V 241.51953 C 241.67969,233.19922 232,217.76172 232,200 v -16 c 0,-27.03906 22.32031,-48.80078 49.44141,-48 C 307.76172,136.80078 328,159.76172 328,186 v 14 c 0,17.76172 -9.67969,33.19922 -24,41.51953 V 256 l 39.76172,9.92187 c 6.47656,1.67969 12.07812,5.19922 16.23828,9.91797 V 352 c -9.44141,0 -17.60156,-6.39844 -19.92188,-15.51953 l -8.63671,-34.87891 C 329.44141,293.60156 322.23828,288 314,288 c -4.96094,0 -9.44141,2 -12.71875,5.28125 C 298,296.55859 296,301.03906 296,306 Z m 0,0"
       data-original="#B4DD7F"
       class=""
       id="path14"
       inkscape:connector-curvature="0"
       style="fill:#b4dd7f" />
    <path
       d="m 424,232 v 16 c 0,-8.80078 7.19922,-16 16,-16 4.39844,0 8.39844,1.76172 11.28125,4.71875 C 454.23828,239.60156 456,243.60156 456,248 v 16 c 0,-4.39844 1.76172,-8.39844 4.71875,-11.28125 C 463.60156,249.76172 467.60156,248 472,248 c 8.80078,0 16,7.19922 16,16 v 118.32031 c 0,6.32031 -1.83984,12.48047 -5.35938,17.75781 l -21.28125,31.84375 C 457.83984,437.19922 456,443.35937 456,449.67969 V 488 H 344 v -36.80078 c 0,-7.27735 -2.48047,-14.32031 -7.03906,-20 L 331.19922,424 316.71875,405.92187 C 313.60156,402 311.44141,397.44141 310.39844,392.64062 L 310.32031,392 l -11.4414,-64 -2.5586,-14.39844 C 296.07812,312.55859 296,311.44141 296,310.39844 V 306 c 0,-4.96094 2,-9.44141 5.28125,-12.71875 C 304.55859,290 309.03906,288 314,288 c 8.23828,0 15.44141,5.60156 17.44141,13.60156 l 8.63671,34.87891 C 342.39844,345.60156 350.55859,352 360,352 V 168 c 0,-4.39844 1.76172,-8.39844 4.71875,-11.28125 C 367.60156,153.76172 371.60156,152 376,152 c 8.80078,0 16,7.19922 16,16 v 64 c 0,-8.80078 7.19922,-16 16,-16 4.39844,0 8.39844,1.76172 11.28125,4.71875 C 422.23828,223.60156 424,227.60156 424,232 Z m 0,0"
       data-original="#F0D0B4"
       class=""
       id="path16"
       inkscape:connector-curvature="0"
       style="fill:#f0d0b4" />
    <path
       d="M 299.90234,336 H 184 v -39.01563 c 0,-18.39062 12.45703,-34.34375 30.29688,-38.80859 L 248,249.75391 v -3.84375 C 233.08984,235.49609 224,218.3125 224,200.00781 v -16 c 0,-15.28125 6.03906,-29.55078 17.00781,-40.1914 10.96094,-10.63282 25.28906,-16.15235 40.71094,-15.78516 C 311.64844,128.92969 336,154.9375 336,186.01563 V 200 c 0,18.3125 -9.08984,35.50391 -24.00781,45.91016 v 3.83203 l 33.71093,8.43359 c 7.96094,1.99219 15,6.29688 20.39454,12.44922 l -12.04297,10.54297 c -3.23047,-3.69531 -7.46094,-6.27344 -12.23828,-7.48047 l -45.8086,-11.44922 -0.0234,-25.31641 4,-2.3125 C 312.32813,227.46484 320,214.19922 320,200 v -13.98438 c 0,-22.51171 -17.39062,-41.35156 -38.76172,-41.99218 -11.03906,-0.44922 -21.26172,3.67187 -29.08594,11.26562 C 244.32031,162.88672 240,173.08984 240,184 v 16 c 0,14.19141 7.66406,27.45703 20.00781,34.60156 L 264,236.91016 v 25.33593 l -45.82422,11.44922 C 207.48047,276.375 200,285.95312 200,296.98437 V 320 h 99.90234 z m 0,0"
       data-original="#000000"
       class=""
       style="fill:#000000"
       id="path18"
       inkscape:connector-curvature="0" />
    <path
       d="m 32,160 h 16 v 16 H 32 Z m 0,0"
       data-original="#000000"
       class=""
       style="fill:#000000"
       id="path20"
       inkscape:connector-curvature="0" />
    <path
       d="m 64,160 h 96 v 16 H 64 Z m 0,0"
       data-original="#000000"
       class=""
       style="fill:#000000"
       id="path22"
       inkscape:connector-curvature="0" />
    <path
       d="m 32,192 h 128 v 16 H 32 Z m 0,0"
       data-original="#000000"
       class=""
       style="fill:#000000"
       id="path24"
       inkscape:connector-curvature="0" />
    <path
       d="m 248,32 h 64 v 16 h -64 z m 0,0"
       data-original="#000000"
       class=""
       style="fill:#000000"
       id="path26"
       inkscape:connector-curvature="0" />
    <path
       d="m 328,32 h 16 v 16 h -16 z m 0,0"
       data-original="#000000"
       class=""
       style="fill:#000000"
       id="path28"
       inkscape:connector-curvature="0" />
    <path
       d="m 216,32 h 16 v 16 h -16 z m 0,0"
       data-original="#000000"
       class=""
       style="fill:#000000"
       id="path30"
       inkscape:connector-curvature="0" />
    <path
       d="m 256,448 h 48 v 16 h -48 z m 0,0"
       data-original="#000000"
       class=""
       style="fill:#000000"
       id="path32"
       inkscape:connector-curvature="0" />
    <path
       d="m 472,240 c -2.81641,0 -5.48828,0.57422 -8,1.47266 V 40 C 464,17.945312 446.05469,0 424,0 H 136 C 113.94531,0 96,17.945312 96,40 v 104 h 72 c 4.40625,0 8,3.58594 8,8 v 64 c 0,4.41406 -3.59375,8 -8,8 H 96 v 23.35156 L 66.808594,224 H 24 c -4.40625,0 -8,-3.58594 -8,-8 v -64 c 0,-4.41406 3.59375,-8 8,-8 H 80 V 128 H 24 C 10.769531,128 0,138.76953 0,152 v 64 c 0,13.23047 10.769531,24 24,24 H 61.191406 L 112,280.64844 V 240 h 16 v 160 h 176.33594 c 1.48047,3.91016 3.51953,7.625 6.13672,10.89453 L 314.55078,416 H 112 V 297.16797 H 96 V 456 c 0,22.05469 17.94531,40 40,40 h 328 v -46.3125 c 0,-4.75 1.39062,-9.35156 4.03125,-13.3125 l 21.25,-31.87109 C 493.67187,397.91016 496,390.23828 496,382.32031 V 264 c 0,-13.23047 -10.76953,-24 -24,-24 z M 136,16 h 288 c 13.23047,0 24,10.769531 24,24 V 64 H 112 V 40 c 0,-13.230469 10.76953,-24 24,-24 z M 112,80 H 448 V 225.47266 C 445.48828,224.57422 442.81641,224 440,224 c -2.81641,0 -5.48828,0.57422 -8,1.47266 V 96 H 128 v 32 h -16 z m 32,160 h 24 c 13.23047,0 24,-10.76953 24,-24 v -64 c 0,-13.23047 -10.76953,-24 -24,-24 h -24 v -16 h 272 v 97.47266 C 413.48828,208.57422 410.81641,208 408,208 c -2.81641,0 -5.48828,0.57422 -8,1.47266 V 168 c 0,-13.23047 -10.76953,-24 -24,-24 -13.23047,0 -24,10.76953 -24,24 v 173.11328 c -1.98438,-1.64844 -3.45703,-3.92187 -4.12109,-6.57031 l -8.71875,-34.86328 C 336.27344,288.08984 325.90234,280 313.96875,280 299.64844,280 288,291.64844 288,305.96875 v 4.4375 c 0,1.53906 0.13672,3.06641 0.40625,4.57031 L 300.75391,384 H 144 Z m -8,240 c -13.23047,0 -24,-10.76953 -24,-24 v -24 h 215.35156 l 3.38281,4.23047 C 334.13672,440.47266 336,445.80078 336,451.22266 V 480 Z m 344,-97.6875 c 0,4.75 -1.39063,9.35156 -4.03125,13.3125 l -21.25,31.87109 C 450.32812,434.09766 448,441.76953 448,449.6875 V 480 h -96 v -28.77734 c 0,-9.05469 -3.11328,-17.92579 -8.76953,-24.99219 L 322.96875,400.90234 C 320.64844,398 319.01562,394.55078 318.29687,391.20703 L 304.16016,312.16016 C 304.04688,311.57422 304,310.99219 304,310.40625 v -4.4375 C 304,300.47266 308.47266,296 313.96875,296 c 4.58203,0 8.55859,3.10547 9.67188,7.54297 l 8.71875,34.86328 C 335.52734,351.12891 346.89453,360 360,360 h 8 V 168 c 0,-4.41406 3.59375,-8 8,-8 4.40625,0 8,3.58594 8,8 v 160 h 16 v -96 c 0,-4.41406 3.59375,-8 8,-8 4.40625,0 8,3.58594 8,8 v 96 h 16 v -80 c 0,-4.41406 3.59375,-8 8,-8 4.40625,0 8,3.58594 8,8 v 80 h 16 v -64 c 0,-4.41406 3.59375,-8 8,-8 4.40625,0 8,3.58594 8,8 z m 0,0"
       data-original="#000000"
       class=""
       style="fill:#000000"
       id="path34"
       inkscape:connector-curvature="0" />
    <path
       d="m 160,352 h 16 v 16 h -16 z m 0,0"
       data-original="#000000"
       class=""
       style="fill:#000000"
       id="path36"
       inkscape:connector-curvature="0" />
    <path
       d="m 192,352 h 88 v 16 h -88 z m 0,0"
       data-original="#000000"
       class=""
       style="fill:#000000"
       id="path38"
       inkscape:connector-curvature="0" />
  </g>
</svg>
